X:141
T:Dockedansen
R:Waltz
O:Sweden
N:Needs abc2mtex
N:It means "Puppet dance", apparently
M:3/4
K:Dm 0&2
F2 & (A^c)|\
E2D2B,2 & e2f2(de)|A,2FG FE & (^cA)(=Bc)de|\
[D2A2][D2A2] & d2d2 |:\
F2 & (A^c) |\
E2D2B,2 & e2f2 (de)| A,2 (FG) FE & (^cA)(=Bc)de | F2E2G2 & d2^c2(Ac) |\
E2D2B,2 & e2f2 (de)| A,2 (FG) FE & (^cA)(=Bc)de | [D2A2][D2A2](FE) & d2d2(fg)|\
D2(FA) de & a2 (fa) ag| ^c2A2 BA & e2 (^cd) gf |\
G2G2^G2 & d2 (=B^c)de | A2=G2F2 & ^c2 (A=B)cd|\
E2D2B,2 & e2f2(de)| A,2 (FG) (FE) & (^cA)(=Bc)(de)| [D2A2]z2 & d2z2:|
